src/assets/duotone/LockCircle.svg

<svg width="24" height="24" viewBox="0 0 24 24"  xmlns="http://www.w3.org/2000/svg">
<path opacity="0.4" d="M12 22C17.5228 22 22 17.5228 22 12C22 6.47715 17.5228 2 12 2C6.47715 2 2 6.47715 2 12C2 17.5228 6.47715 22 12 22Z" />
<path d="M15.7501 10.73V10C15.7501 9.07 15.7501 6.25 12.0001 6.25C8.25012 6.25 8.25012 9.07 8.25012 10V10.73C7.03012 11 6.62012 11.79 6.62012 13.5V14.5C6.62012 16.7 7.30012 17.38 9.50012 17.38H14.5001C16.7001 17.38 17.3801 16.7 17.3801 14.5V13.5C17.3801 11.79 16.9701 11 15.7501 10.73ZM12.0001 15.1C11.3901 15.1 10.9001 14.61 10.9001 14C10.9001 13.39 11.3901 12.9 12.0001 12.9C12.6101 12.9 13.1001 13.39 13.1001 14C13.1001 14.61 12.6101 15.1 12.0001 15.1ZM14.2501 10.62H9.75012V10C9.75012 8.54 10.1101 7.75 12.0001 7.75C13.8901 7.75 14.2501 8.54 14.2501 10V10.62Z" />
</svg>

<?xml version="1.0" encoding="UTF-8"?>
<svg width="24" height="24" viewBox="0 0 24 24" xmlns="http://www.w3.org/2000/svg">
 <path d="m12 22c5.5228 0 10-4.4772 10-10 0-5.5228-4.4772-10-10-10-5.5228 0-10 4.4772-10 10 0 5.5228 4.4772 10 10 10z" opacity=".4"/>
 <path d="m15.75 10.73v-0.73c0-0.93 0-3.75-3.75-3.75-3.75 0-3.75 2.82-3.75 3.75v0.73c-1.22 0.27-1.63 1.06-1.63 2.77v1c0 2.2 0.68 2.88 2.88 2.88h5c2.2 0 2.88-0.68 2.88-2.88v-1c0-1.71-0.41-2.5-1.63-2.77zm-3.75 4.37c-0.61 0-1.1-0.49-1.1-1.1s0.49-1.1 1.1-1.1 1.1 0.49 1.1 1.1-0.49 1.1-1.1 1.1zm2.25-4.48h-4.5v-0.62c0-1.46 0.35998-2.25 2.25-2.25s2.25 0.79 2.25 2.25v0.62z"/>
</svg>
